src/lib/packages/icons/src/assets/line/coin-convert.svg

<svg width="24" height="24" viewBox="0 0 24 24" fill="none" xmlns="http://www.w3.org/2000/svg">
<path d="M3.00097 11.8C2.97397 11.8 2.94602 11.799 2.91802 11.796C2.50602 11.751 2.20902 11.38 2.25402 10.969C2.61702 7.65199 4.619 4.79503 7.609 3.32703C7.842 3.21303 8.11699 3.22701 8.33599 3.36401C8.55599 3.50101 8.68999 3.74198 8.68999 4.00098V7.05103C8.68999 7.46503 8.35399 7.80103 7.93999 7.80103C7.52599 7.80103 7.18999 7.46503 7.18999 7.05103V5.31006C5.26699 6.64806 4.00596 8.74896 3.74596 11.132C3.70396 11.515 3.37797 11.8 3.00097 11.8ZM21.081 12.205C20.673 12.161 20.3 12.457 20.255 12.869C19.994 15.252 18.734 17.353 16.81 18.691V16.95C16.81 16.536 16.474 16.2 16.06 16.2C15.646 16.2 15.31 16.536 15.31 16.95V20C15.31 20.259 15.444 20.5 15.664 20.637C15.785 20.712 15.922 20.75 16.06 20.75C16.173 20.75 16.286 20.725 16.391 20.673C19.381 19.206 21.383 16.349 21.745 13.031C21.791 12.62 21.493 12.25 21.081 12.205ZM11.25 7C11.25 4.381 13.381 2.25 16 2.25C18.619 2.25 20.75 4.381 20.75 7C20.75 9.619 18.619 11.75 16 11.75C13.381 11.75 11.25 9.619 11.25 7ZM12.75 7C12.75 8.792 14.208 10.25 16 10.25C17.792 10.25 19.25 8.792 19.25 7C19.25 5.208 17.792 3.75 16 3.75C14.208 3.75 12.75 5.208 12.75 7ZM12.75 17C12.75 19.619 10.619 21.75 7.99999 21.75C5.38099 21.75 3.24999 19.619 3.24999 17C3.24999 14.381 5.38099 12.25 7.99999 12.25C10.619 12.25 12.75 14.381 12.75 17ZM11.25 17C11.25 15.208 9.79199 13.75 7.99999 13.75C6.20799 13.75 4.74999 15.208 4.74999 17C4.74999 18.792 6.20799 20.25 7.99999 20.25C9.79199 20.25 11.25 18.792 11.25 17Z" fill="currentColor"/>
</svg>

<svg xmlns="http://www.w3.org/2000/svg" width="24" height="24" fill="none"><path fill="currentColor" d="M3.001 11.8a.75.75 0 0 1-.747-.831 9.638 9.638 0 0 1 5.355-7.642.75.75 0 0 1 1.081.674v3.05a.75.75 0 0 1-1.5 0v-1.74a8.136 8.136 0 0 0-3.444 5.821.751.751 0 0 1-.745.668Zm18.08.405a.752.752 0 0 0-.826.664 8.137 8.137 0 0 1-3.445 5.822V16.95a.75.75 0 0 0-1.5 0V20a.75.75 0 0 0 1.081.673 9.631 9.631 0 0 0 5.354-7.642.749.749 0 0 0-.664-.826ZM11.25 7A4.756 4.756 0 0 1 16 2.25 4.756 4.756 0 0 1 20.75 7 4.756 4.756 0 0 1 16 11.75 4.756 4.756 0 0 1 11.25 7Zm1.5 0A3.254 3.254 0 0 0 16 10.25 3.254 3.254 0 0 0 19.25 7 3.254 3.254 0 0 0 16 3.75 3.254 3.254 0 0 0 12.75 7Zm0 10A4.756 4.756 0 0 1 8 21.75 4.756 4.756 0 0 1 3.25 17 4.756 4.756 0 0 1 8 12.25 4.756 4.756 0 0 1 12.75 17Zm-1.5 0A3.254 3.254 0 0 0 8 13.75 3.254 3.254 0 0 0 4.75 17 3.254 3.254 0 0 0 8 20.25 3.254 3.254 0 0 0 11.25 17Z"/></svg>
